X: 585
M: 6/8
L: 1/8
K: D
V: 1
|: e |\
f2d ecA | faf ecA | Bcd d2A | BGE E2A |\
V: 2 clef=bass middle=d
z |\
d'3 c'3 | b3 f3 | g3 f3 | g3 a3 |\
d'3 c'3 | b3 f3 | g3 a3 | d3 d2 :|
|: a |\
d3 a3 | d3 a2f | g3 f3 | g3 a2f |\
g2e f2d | e2c d2f | g2e a2A | d3 D2 :|

